static/img/menus/ico-air-schedule.svg

<svg width="16" height="16" viewBox="0 0 16 16" fill="none" xmlns="http://www.w3.org/2000/svg">
<path d="M13.1667 3C13.1667 2.90796 13.092 2.83333 13 2.83333H3.00001C2.90796 2.83333 2.83334 2.90796 2.83334 3V13C2.83334 13.092 2.90796 13.1667 3.00001 13.1667H13C13.092 13.1667 13.1667 13.092 13.1667 13V3ZM13.8333 13C13.8333 13.4602 13.4602 13.8333 13 13.8333H3.00001C2.53977 13.8333 2.16667 13.4602 2.16667 13V3C2.16667 2.53977 2.53977 2.16667 3.00001 2.16667H13C13.4602 2.16667 13.8333 2.53976 13.8333 3V13Z" fill="currentColor"/>
<path d="M10.6667 3.5V1.5C10.6667 1.31591 10.8159 1.16667 11 1.16667C11.1841 1.16667 11.3333 1.31591 11.3333 1.5V3.5C11.3333 3.6841 11.1841 3.83333 11 3.83333C10.8159 3.83333 10.6667 3.6841 10.6667 3.5Z" fill="currentColor"/>
<path d="M4.66667 3.5V1.5C4.66667 1.31591 4.81591 1.16667 5.00001 1.16667C5.1841 1.16667 5.33334 1.31591 5.33334 1.5V3.5C5.33334 3.6841 5.1841 3.83333 5.00001 3.83333C4.81591 3.83333 4.66667 3.6841 4.66667 3.5Z" fill="currentColor"/>
<path d="M13.5 5.16667C13.6841 5.16667 13.8333 5.31591 13.8333 5.5C13.8333 5.6841 13.6841 5.83333 13.5 5.83333H2.50001C2.31591 5.83333 2.16667 5.6841 2.16667 5.5C2.16667 5.31591 2.31591 5.16667 2.50001 5.16667H13.5Z" fill="currentColor"/>
<path d="M10.0215 7.75716C10.1555 7.63106 10.3666 7.63754 10.4928 7.77148C10.6189 7.90548 10.6125 8.11664 10.4785 8.24284L7.5599 10.9928C7.43119 11.114 7.22982 11.1132 7.10156 10.9915L5.52083 9.49154C5.38729 9.36484 5.38177 9.15439 5.50846 9.02083C5.63516 8.88729 5.84561 8.88177 5.97917 9.00846L7.33138 10.291L10.0215 7.75716Z" fill="currentColor"/>
</svg>

<svg xmlns="http://www.w3.org/2000/svg" width="16" height="16" fill="none" viewBox="0 0 16 16"><path fill="currentColor" d="M13.167 3A.167.167 0 0 0 13 2.833H3A.167.167 0 0 0 2.833 3v10c0 .092.075.167.167.167h10a.167.167 0 0 0 .167-.167zm.666 10c0 .46-.373.833-.833.833H3A.833.833 0 0 1 2.167 13V3c0-.46.373-.833.833-.833h10c.46 0 .833.373.833.833z"/><path fill="currentColor" d="M10.667 3.5v-2a.333.333 0 1 1 .666 0v2a.333.333 0 1 1-.666 0M4.667 3.5v-2a.333.333 0 0 1 .666 0v2a.333.333 0 1 1-.666 0M13.5 5.167a.333.333 0 0 1 0 .666h-11a.333.333 0 1 1 0-.666zM10.022 7.757a.334.334 0 0 1 .457.486l-2.92 2.75a.334.334 0 0 1-.457-.002l-1.581-1.5a.333.333 0 1 1 .458-.483l1.352 1.283z"/></svg>
